server/website/public/icons/base/audio.svg

<svg width="48" height="48" viewBox="0 0 48 48" fill="none" xmlns="http://www.w3.org/2000/svg">
<g clip-path="url(#clip0_1395_21952)">
<path d="M30.0029 -0.000976562V16.202C31.3732 16.9909 32.5113 18.127 33.3027 19.4959C34.0941 20.8647 34.5107 22.4179 34.5107 23.999C34.5107 25.5801 34.0941 27.1334 33.3027 28.5022C32.5113 29.871 31.3732 31.0071 30.0029 31.796V47.999L14.0039 35.999H0.00292969V11.999H14.0039L30.0029 -0.000976562ZM24.0029 11.999L16.0019 17.999H6.00293V29.999H16.0019L24.0029 35.999V11.999Z" fill="black"/>
<path d="M40.8008 9.59981L38.4038 7.7998L34.8008 12.5968L37.2008 14.3968C38.1109 15.0809 38.919 15.891 39.6008 16.8028C41.1098 18.8068 42.0008 21.2938 42.0008 23.9998C42.0008 26.7058 41.1098 29.1898 39.6008 31.1998C38.9185 32.1095 38.1104 32.9176 37.2008 33.5998L34.8008 35.4028L38.4038 40.2028L40.8038 38.3998C42.1662 37.376 43.3762 36.1639 44.3978 34.7998C46.7395 31.6865 48.0043 27.8955 48.0008 23.9998C48.0008 19.9498 46.6598 16.2058 44.4008 13.1998C43.3774 11.8353 42.1653 10.6232 40.8008 9.59981Z" fill="black"/>
</g>
<defs>
<clipPath id="clip0_1395_21952">
<rect width="48" height="48" fill="white"/>
</clipPath>
</defs>
</svg>

<svg width="48" height="48" fill="none" xmlns="http://www.w3.org/2000/svg"><g clip-path="url(#prefix__clip0_1395_21952)" fill="#000"><path d="M30.003-.001v16.203a8.996 8.996 0 010 15.594v16.203l-16-12h-14v-24h14l16-12zm-6 12l-8.001 6h-10v12h10l8 6v-24z"/><path d="M40.8 9.6l-2.396-1.8-3.603 4.797 2.4 1.8a12 12 0 012.4 2.406A11.909 11.909 0 0142 24c0 2.706-.891 5.19-2.4 7.2a12 12 0 01-2.4 2.4l-2.4 1.803 3.603 4.8 2.4-1.803a18 18 0 003.594-3.6A17.94 17.94 0 0048 24c0-4.05-1.341-7.794-3.6-10.8a18.001 18.001 0 00-3.6-3.6z"/></g><defs><clipPath id="prefix__clip0_1395_21952"><path fill="#fff" d="M0 0h48v48H0z"/></clipPath></defs></svg>
